Origami/48x48/apps/protege.svg

<svg width="48" height="48" version="1" xmlns="http://www.w3.org/2000/svg">
 <path d="m19.221825 31.6599c-4.295767-4.295767-4.295767-11.260582 0-15.556349s19.745864-12.781048 24.041631-8.4852814c4.295767 4.2957674-4.189515 19.745863-8.485282 24.04163-4.295767 4.295768-11.260582 4.295768-15.556349 0z" style="opacity:.2"/>
 <path d="m19.221825 30.6599c-4.295767-4.295767-4.295767-11.260582 0-15.556349s19.745864-12.781048 24.041631-8.485281c4.295767 4.295767-4.189515 19.745863-8.485282 24.04163-4.295767 4.295768-11.260582 4.295768-15.556349 0z" style="fill:#25509a"/>
 <path d="m39.818359 5.4375c-6.251661-0.08084-17.105392 6.175705-20.595703 9.666016-2.275157 2.275157-3.334034 5.297866-3.199218 8.277343 0.11994-2.645811 1.178845-5.25697 3.199218-7.277343 4.295767-4.295767 19.745249-12.780142 24.041016-8.4843754 0.746009 0.7460088 1.100082 1.832804 1.164062 3.1347654 0.096368-1.7504465-0.233576-3.2042788-1.164062-4.1347654-0.805456-0.8054563-2.002622-1.1629852-3.445313-1.1816406z" style="fill:#ffffff;opacity:.1"/>
 <path d="m31.949747 28.831237c-2.767171 2.767172-7.132324 2.767172-9.899495 0-2.767171-2.767171-2.767171-7.132323 0-9.899495 1.383586-1.383585 6.28579-4.690101 10.77233-6.618077 2.24327-0.963988 4.445375-1.629908 5.96069-1.814723 0.935306-0.114075 1.397881-0.02436 1.588227 0.01105 0.03541 0.190347 0.125124 0.652922 0.01105 1.588228-0.184815 1.515314-0.850735 3.717419-1.814723 5.96069-1.927976 4.48654-5.234492 9.388743-6.618078 10.772329z" style="opacity:.2"/>
 <path d="m31.949747 27.831473c-2.767171 2.767172-7.132324 2.767172-9.899495 0-2.767171-2.767171-2.767171-7.132323 0-9.899495 1.383586-1.383585 6.28579-4.690101 10.77233-6.618077 2.24327-0.963988 4.445375-1.6299081 5.96069-1.8147231 0.935306-0.1140751 1.397881-0.024357 1.588227 0.011048 0.03541 0.1903468 0.125124 0.6529221 0.01105 1.5882281-0.184815 1.515314-0.850735 3.717419-1.814723 5.96069-1.927976 4.48654-5.234492 9.388743-6.618078 10.772329z" style="fill:#ffffff"/>
 <path d="m19.006902 16.11236c-4.295767 4.295767-4.295768 11.260582 0 15.556349 4.295767 4.295766 19.745863 12.781048 24.04163 8.485281 4.295768-4.295767-4.189514-19.745864-8.485282-24.041631-4.295767-4.295767-11.260582-4.295766-15.556348 1e-6z" style="opacity:.2"/>
 <path d="m19.006902 15.11236c-4.295767 4.295767-4.295768 11.260582 0 15.556349 4.295767 4.295766 19.745863 12.781048 24.04163 8.485281 4.295768-4.295767-4.189514-19.745864-8.485282-24.041631-4.295767-4.295767-11.260582-4.295766-15.556348 1e-6z" style="fill:#9e51c3"/>
 <path d="m31.734824 18.940786c-2.767172-2.767171-7.132324-2.767171-9.899495 1e-6 -2.767171 2.76717-2.767172 7.132323 0 9.899495 1.383586 1.383586 6.285789 4.690101 10.77233 6.618077 2.24327 0.963988 4.445374 1.629908 5.96069 1.814722 0.935306 0.114076 1.39788 0.02436 1.588227-0.01105 0.0354-0.190345 0.125123-0.652922 0.01105-1.588229-0.184815-1.515313-0.850735-3.717419-1.814723-5.96069-1.927976-4.486539-5.234492-9.388742-6.618077-10.772329z" style="opacity:.2"/>
 <path d="m31.734824 17.940786c-2.767172-2.767171-7.132324-2.767171-9.899495 1e-6 -2.767171 2.76717-2.767172 7.132323 0 9.899495 1.383586 1.383586 6.285789 4.690101 10.77233 6.618077 2.24327 0.963988 4.445374 1.629908 5.96069 1.814722 0.935306 0.114076 1.39788 0.02436 1.588227-0.01105 0.0354-0.190345 0.125123-0.652922 0.01105-1.588229-0.184815-1.515313-0.850735-3.717419-1.814723-5.96069-1.927976-4.486539-5.234492-9.388742-6.618077-10.772329z" style="fill:#ffffff"/>
 <path d="m38 24c0 6.075132-4.924868 11-11 11s-23-4.924868-23-11 16.924868-11 23-11 11 4.924868 11 11z" style="opacity:.2"/>
 <path d="m38 23c0 6.075132-4.924868 11-11 11s-23-4.924868-23-11 16.924868-11 23-11 11 4.924868 11 11z" style="fill:#d97f33"/>
 <path d="m27 16.999764c3.913371 0 7 3.086629 7 7s-3.086629 7-7 7c-1.956686 0-7.761127-1.128322-12.296875-2.9375-2.267874-0.904589-4.295874-1.990836-5.4980469-2.931641-0.7420246-0.580698-1.0056744-0.971228-1.1152343-1.130859 0.1095599-0.159631 0.3732097-0.550161 1.1152343-1.130859 1.2021729-0.940805 3.2301729-2.027052 5.4980469-2.931641 4.535748-1.809178 10.340189-2.9375 12.296875-2.9375z" style="opacity:.2"/>
 <path d="m27 16c3.913371 0 7 3.086629 7 7s-3.086629 7-7 7c-1.956686 0-7.761127-1.128322-12.296875-2.9375-2.267874-0.904589-4.295874-1.990836-5.4980469-2.931641-0.7420246-0.580698-1.0056744-0.971228-1.1152343-1.130859 0.1095599-0.159631 0.3732097-0.550161 1.1152343-1.130859 1.2021729-0.940805 3.2301729-2.027052 5.4980469-2.931641 4.535748-1.809178 10.340189-2.9375 12.296875-2.9375z" style="fill:#ffffff"/>
 <path d="M 27,12 C 20.924868,12 4,16.924868 4,23 4,23.167586 4.017793,23.334244 4.042969,23.5 4.9304222,17.656958 21.092454,13 27,13 32.906375,13 37.711432,17.658587 37.974609,23.5 37.982129,23.333099 38,23.168757 38,23 38,16.924868 33.075132,12 27,12 Z" style="fill:#ffffff;opacity:.1"/>
</svg>

<svg xmlns="http://www.w3.org/2000/svg" width="48" height="48" version="1">
 <path style="opacity:0.2" d="m 19.221825,31.6599 c -4.295767,-4.295767 -4.295767,-11.260582 0,-15.556349 C 23.517592,11.807784 38.967689,3.3225025 43.263456,7.6182696 47.559223,11.914037 39.073941,27.364133 34.778174,31.6599 c -4.295767,4.295768 -11.260582,4.295768 -15.556349,0 z"/>
 <path style="fill:#25509a" d="m 19.221825,30.6599 c -4.295767,-4.295767 -4.295767,-11.260582 0,-15.556349 4.295767,-4.295767 19.745864,-12.7810481 24.041631,-8.485281 4.295767,4.295767 -4.189515,19.745863 -8.485282,24.04163 -4.295767,4.295768 -11.260582,4.295768 -15.556349,0 z"/>
 <path style="opacity:0.1;fill:#ffffff" d="m 39.818359,5.4375 c -6.251661,-0.08084 -17.105392,6.175705 -20.595703,9.666016 -2.275157,2.275157 -3.334034,5.297866 -3.199218,8.277343 0.11994,-2.645811 1.178845,-5.25697 3.199218,-7.277343 4.295767,-4.295767 19.745249,-12.7801425 24.041016,-8.4843754 0.746009,0.7460088 1.100082,1.832804 1.164062,3.1347654 C 44.524102,9.0034595 44.194158,7.5496272 43.263672,6.6191406 42.458216,5.8136843 41.26105,5.4561554 39.818359,5.4375 Z"/>
 <path style="opacity:0.2" d="m 31.949747,28.831237 c -2.767171,2.767172 -7.132324,2.767172 -9.899495,0 -2.767171,-2.767171 -2.767171,-7.132323 0,-9.899495 1.383586,-1.383585 6.28579,-4.690101 10.77233,-6.618077 2.24327,-0.963988 4.445375,-1.629908 5.96069,-1.814723 0.935306,-0.114075 1.397881,-0.02436 1.588227,0.01105 0.03541,0.190347 0.125124,0.652922 0.01105,1.588228 -0.184815,1.515314 -0.850735,3.717419 -1.814723,5.96069 -1.927976,4.48654 -5.234492,9.388743 -6.618078,10.772329 z"/>
 <path style="fill:#ffffff" d="m 31.949747,27.831473 c -2.767171,2.767172 -7.132324,2.767172 -9.899495,0 -2.767171,-2.767171 -2.767171,-7.132323 0,-9.899495 1.383586,-1.383585 6.28579,-4.690101 10.77233,-6.618077 2.24327,-0.963988 4.445375,-1.6299081 5.96069,-1.8147231 0.935306,-0.1140751 1.397881,-0.024357 1.588227,0.011048 0.03541,0.1903468 0.125124,0.6529221 0.01105,1.5882281 -0.184815,1.515314 -0.850735,3.717419 -1.814723,5.96069 -1.927976,4.48654 -5.234492,9.388743 -6.618078,10.772329 z"/>
 <path style="opacity:0.2" d="m 19.006902,16.11236 c -4.295767,4.295767 -4.295768,11.260582 0,15.556349 4.295767,4.295766 19.745863,12.781048 24.04163,8.485281 C 47.3443,35.858223 38.859018,20.408126 34.56325,16.112359 30.267483,11.816592 23.302668,11.816593 19.006902,16.11236 Z"/>
 <path style="fill:#9e51c3" d="m 19.006902,15.11236 c -4.295767,4.295767 -4.295768,11.260582 0,15.556349 4.295767,4.295766 19.745863,12.781048 24.04163,8.485281 4.295768,-4.295767 -4.189514,-19.745864 -8.485282,-24.041631 -4.295767,-4.295767 -11.260582,-4.295766 -15.556348,1e-6 z"/>
 <path style="opacity:0.2" d="m 31.734824,18.940786 c -2.767172,-2.767171 -7.132324,-2.767171 -9.899495,1e-6 -2.767171,2.76717 -2.767172,7.132323 0,9.899495 1.383586,1.383586 6.285789,4.690101 10.77233,6.618077 2.24327,0.963988 4.445374,1.629908 5.96069,1.814722 0.935306,0.114076 1.39788,0.02436 1.588227,-0.01105 0.0354,-0.190345 0.125123,-0.652922 0.01105,-1.588229 -0.184815,-1.515313 -0.850735,-3.717419 -1.814723,-5.96069 -1.927976,-4.486539 -5.234492,-9.388742 -6.618077,-10.772329 z"/>
 <path style="fill:#ffffff" d="m 31.734824,17.940786 c -2.767172,-2.767171 -7.132324,-2.767171 -9.899495,1e-6 -2.767171,2.76717 -2.767172,7.132323 0,9.899495 1.383586,1.383586 6.285789,4.690101 10.77233,6.618077 2.24327,0.963988 4.445374,1.629908 5.96069,1.814722 0.935306,0.114076 1.39788,0.02436 1.588227,-0.01105 0.0354,-0.190345 0.125123,-0.652922 0.01105,-1.588229 -0.184815,-1.515313 -0.850735,-3.717419 -1.814723,-5.96069 -1.927976,-4.486539 -5.234492,-9.388742 -6.618077,-10.772329 z"/>
 <path style="opacity:0.2" d="M 38,24 C 38,30.075132 33.075132,35 27,35 20.924868,35 4,30.075132 4,24 4,17.924868 20.924868,13 27,13 c 6.075132,0 11,4.924868 11,11 z"/>
 <path style="fill:#d97f33" d="M 38,23 C 38,29.075132 33.075132,34 27,34 20.924868,34 4,29.075132 4,23 4,16.924868 20.924868,12 27,12 c 6.075132,0 11,4.924868 11,11 z"/>
 <path style="opacity:0.2" d="m 27,16.999764 c 3.913371,0 7,3.086629 7,7 0,3.913371 -3.086629,7 -7,7 -1.956686,0 -7.761127,-1.128322 -12.296875,-2.9375 C 12.435251,27.157675 10.407251,26.071428 9.2050781,25.130623 8.4630535,24.549925 8.1994037,24.159395 8.0898438,23.999764 8.1994037,23.840133 8.4630535,23.449603 9.2050781,22.868905 10.407251,21.9281 12.435251,20.841853 14.703125,19.937264 19.238873,18.128086 25.043314,16.999764 27,16.999764 Z"/>
 <path style="fill:#ffffff" d="m 27,16 c 3.913371,0 7,3.086629 7,7 0,3.913371 -3.086629,7 -7,7 C 25.043314,30 19.238873,28.871678 14.703125,27.0625 12.435251,26.157911 10.407251,25.071664 9.2050781,24.130859 8.4630535,23.550161 8.1994037,23.159631 8.0898438,23 8.1994037,22.840369 8.4630535,22.449839 9.2050781,21.869141 10.407251,20.928336 12.435251,19.842089 14.703125,18.9375 19.238873,17.128322 25.043314,16 27,16 Z"/>
 <path style="opacity:0.1;fill:#ffffff" d="M 27,12 C 20.924868,12 4,16.924868 4,23 4,23.167586 4.017793,23.334244 4.042969,23.5 4.9304222,17.656958 21.092454,13 27,13 32.906375,13 37.711432,17.658587 37.974609,23.5 37.982129,23.333099 38,23.168757 38,23 38,16.924868 33.075132,12 27,12 Z"/>
</svg>
